icons/svg/hexagon.svg

<svg width="24" height="24" viewBox="0 0 24 24" fill="none" xmlns="http://www.w3.org/2000/svg">
<path d="M10.4208 3.17315C11.398 2.60895 12.602 2.60895 13.5792 3.17315L18.8547 6.21892C19.8319 6.78313 20.4339 7.82582 20.4339 8.95424V15.0458C20.4339 16.1742 19.8319 17.2169 18.8547 17.7811L13.5792 20.8268C12.602 21.3911 11.398 21.3911 10.4208 20.8268L5.14535 17.7811C4.16812 17.2169 3.56612 16.1742 3.56612 15.0458V8.95424C3.56612 7.82582 4.16812 6.78313 5.14535 6.21892L10.4208 3.17315Z" stroke="currentColor" stroke-width="1.5" stroke-linecap="round" stroke-linejoin="round"/>
</svg>

<svg xmlns="http://www.w3.org/2000/svg" width="24" height="24" fill="none" viewBox="0 0 24 24"><path stroke="currentColor" stroke-linecap="round" stroke-linejoin="round" stroke-width="1.5" d="M10.42 3.173a3.16 3.16 0 0 1 3.16 0l5.275 3.046a3.16 3.16 0 0 1 1.579 2.735v6.092a3.16 3.16 0 0 1-1.58 2.735l-5.275 3.046a3.16 3.16 0 0 1-3.158 0L5.145 17.78a3.16 3.16 0 0 1-1.579-2.735V8.954c0-1.128.602-2.17 1.58-2.735z"/></svg>
